svg/other/blessing_line.svg

<?xml version="1.0" encoding="UTF-8"?>
<svg width="24px" height="24px" viewBox="0 0 24 24" version="1.1" xmlns="http://www.w3.org/2000/svg" xmlns:xlink="http://www.w3.org/1999/xlink">
    <title>blessing_line</title>
    <g id="Icon" stroke="none" stroke-width="1" fill="none" fill-rule="evenodd">
        <g id="Business" transform="translate(-145.000000, -480.000000)">
            <g id="blessing_line" transform="translate(145.000000, 480.000000)">
                <path d="M24,0 L24,24 L0,24 L0,0 L24,0 Z M12.5935,23.2578 L12.5819,23.2595 L12.5109,23.295 L12.4919,23.2987 L12.4767,23.295 L12.4057,23.2595 C12.3958,23.2564 12.387,23.259 12.3821,23.2649 L12.378,23.2758 L12.3609,23.7031 L12.3659,23.7235 L12.3769,23.7357 L12.4805,23.8097 L12.4953,23.8136 L12.5071,23.8097 L12.6107,23.7357 L12.6233,23.7197 L12.6267,23.7031 L12.6096,23.2758 C12.6076,23.2657 12.601,23.2593 12.5935,23.2578 Z M12.8584,23.1453 L12.8445,23.1473 L12.6598,23.2397 L12.6499,23.2499 L12.6472,23.2611 L12.6651,23.6906 L12.6699,23.7034 L12.6784,23.7105 L12.8793,23.8032 C12.8914,23.8069 12.9022,23.803 12.9078,23.7952 L12.9118,23.7812 L12.8777,23.1665 C12.8753,23.1546 12.8674,23.147 12.8584,23.1453 Z M12.143,23.1473 C12.1332,23.1424 12.1222,23.1453 12.1156,23.1526 L12.1099,23.1665 L12.0758,23.7812 C12.0751,23.7927 12.0828,23.8019 12.0926,23.8046 L12.1083,23.8032 L12.3092,23.7105 L12.3186,23.7024 L12.3225,23.6906 L12.3404,23.2611 L12.3372,23.2485 L12.3278,23.2397 L12.143,23.1473 Z" id="MingCute" fill-rule="nonzero"></path>
                <path d="M10.5859,2.80747 C11.3257947,2.06752789 12.5013393,2.02858357 13.287092,2.69063704 L13.4143,2.80747 L21.1925,10.5856 C21.9323947,11.3255895 21.9713366,12.5010493 21.3093255,13.2868778 L21.1925,13.4141 L13.4143,21.1922 C12.6744053,21.9321895 11.4988607,21.9711363 10.713108,21.3090404 L10.5859,21.1922 L2.80771,13.4141 C2.06776789,12.6741105 2.02882357,11.4986507 2.69087704,10.7128222 L2.80771,10.5856 L10.5859,2.80747 Z M12.0001,4.22168 L4.22192,11.9999 L12.0001,19.778 L19.7783,11.9999 L12.0001,4.22168 Z M12.3859,7.75536 C12.6414,7.45996 13.0246,7.42714 13.1843,7.62407 C13.2682286,7.72759857 13.2639429,7.86741286 13.2363481,8.01012729 L13.1962,8.18064 C13.1782,8.2508 13.1608,8.31832 13.1524,8.37897 C13.1421143,8.45305571 13.2081551,8.46571286 13.3216959,8.45765571 L13.7151624,8.41577997 C13.9277367,8.40023347 14.1726143,8.40737429 14.3979,8.51026 C14.9727,8.77283 14.8754,9.28434 14.5895,9.56056 C14.4508333,9.69451833 14.2363333,9.73714333 14.012088,9.76423361 L13.8769,9.77923 C13.6826,9.79984 13.4908,9.82018 13.344,9.88878 C12.9927,10.0529 12.9927,10.3483 13.1524,10.4468 L13.3512224,10.5751921 L13.3512224,10.5751921 L13.4794061,10.6502003 L13.4794061,10.6502003 L13.6665612,10.7475222 C13.7042408,10.7661796 13.7455571,10.7862 13.7911,10.8078 C14.2062,11.0047 14.1743,11.3986 13.9508,11.5955 C13.9197875,11.6228375 13.8598906,11.6577406 13.778951,11.6980262 L13.5913381,11.785127 L13.5913381,11.785127 L13.2352,11.9342 L13.2352,11.9342 C13.6501,11.8356 14.0708,11.777 14.3979,11.796 L14.8090637,11.8269984 L14.8090637,11.8269984 L15.0232765,11.8521442 L15.0232765,11.8521442 L15.2361163,11.88672 L15.2361163,11.88672 L15.442238,11.9329749 C16.0786776,12.1003147 16.5336655,12.4771586 16.0434,13.3849 C15.7156,13.99185 15.365475,14.50805 15.0485875,14.9281625 L14.7864054,15.2646028 L14.7864054,15.2646028 L14.5482783,15.5532329 L14.5482783,15.5532329 L14.1104,16.0593 L14.1104,16.0593 C13.7904,16.4355 13.3048,16.6656 12.8011,16.3547 C12.2974,16.0438 11.6514,15.6326 11.2363,14.9762 C10.9316333,14.49445 10.9112722,14.2074917 10.9279366,14.0237741 L10.9489,13.8602 L10.9489,13.8602 C10.9638,13.6954 11.1724,13.4335 11.4279,13.6305 C11.5159,13.69834 11.577404,13.80906 11.6424152,13.9479144 L11.6923,14.0571 C11.7888,14.2706 11.907,14.5324 12.1304,14.8013 C12.3095111,14.8752556 12.4227259,14.8419123 12.3558453,14.7965768 L12.3221,14.7792 C12.1624,14.7136 11.843,14.4182 12.1624,13.9259 C12.2402,13.8059 12.3133,13.74295 12.366925,13.7087375 L12.4546,13.664 L12.4546,13.664 L12.449863,13.6605735 L12.3222676,13.6158878 L12.3222676,13.6158878 L12.1816,13.5525 L12.1816,13.5525 C11.6899,13.3103 11.4765,12.9909 11.6107,12.6595 C11.6852714,12.4754714 11.9095,12.3389776 12.1305484,12.221995 L12.2401,12.165 C12.3438,12.1115 12.441,12.0614 12.5144,12.0116 L12.8178773,11.7981308 L12.8178773,11.7981308 L12.9873875,11.6701 C13.112375,11.571225 13.19135,11.49495 13.1843,11.4642 C13.16942,11.39916 13.12094,11.400936 13.0480248,11.4218096 L12.9889,11.4403 C12.9108,11.4656 12.8138,11.4971 12.7053,11.4971 C12.4498,11.4971 12.2582,11.2345 12.3859,10.8406 C12.429175,10.70725 12.5163812,10.56265 12.6028844,10.4321969 L12.7981704,10.1398393 C12.8442877,10.0622269 12.8582856,10.014131 12.8076196,10.0141593 L12.7692,10.0201 C12.5137,10.0857 12.2901,9.98724 12.1305,9.79031 C11.9708,9.59338 11.843,9.1667 11.9069,8.74001 C11.9708,8.31333 12.1305,8.05075 12.3859,7.75536 Z M10.2463,10.3811 C10.7573,10.3483 11.0766,10.9063 11.1405,11.3001 C11.15784,11.4072 11.150484,11.5242 11.1295776,11.6641248 L11.073,11.9784 L11.073,11.9784 L11.0247945,12.2350277 C11.0164819,12.2813416 11.0081136,12.3295235 10.9998148,12.3797177 L10.9518587,12.706208 C10.9292999,12.8826927 10.9096213,13.0799084 10.8962044,13.3017734 L10.8757584,13.7851704 L10.8757584,13.7851704 L10.8145641,15.5322979 L10.8145641,15.5322979 L10.7960727,15.853872 C10.7938617,15.8813272 10.7915778,15.9060333 10.7892,15.928 C10.7573,16.2234 10.6614,16.4532 10.3102,16.486 C9.98589538,16.5162769 9.79768355,16.1550272 9.77064685,15.6603891 L9.76726,15.5341 C9.76726,15.1947667 9.69636667,15.1832556 9.58332963,15.3075667 L9.51068016,15.396916 L9.51068016,15.396916 L9.32017,15.6654 L9.32017,15.6654 C9.06469,16.0265 8.29824,15.6983 8.45792,15.1075 C8.5108075,14.9118125 8.64428094,14.6369062 8.80495652,14.3376396 L9.29310125,13.4615578 L9.29310125,13.4615578 L9.456235,13.1598125 C9.55583,12.968975 9.633925,12.80205 9.67145,12.6786 C9.743425,12.4419 9.66214,12.432975 9.53763875,12.50675 L9.4378792,12.5753207 L9.4378792,12.5753207 L9.28042101,12.7065735 L9.28042101,12.7065735 L9.09662,12.8756 L9.09662,12.8756 C8.80921,13.1381 8.50676,13.2107 8.1705,13.0069 C7.83425,12.803 7.72341,12.5474 7.75535,12.3176 C7.78728,12.0878 8.0747,11.7268 8.20244,11.694 C8.241722,11.68392 8.2545728,11.708652 8.2570196,11.745624 L8.25279,11.8292 C8.24597,11.8977 8.23985,11.9592 8.29824,11.9237 L8.3624944,11.8689448 L8.3624944,11.8689448 L8.88788098,11.359344 L8.88788098,11.359344 L9.14729649,11.117647 C9.54986255,10.7520837 9.995335,10.3972357 10.2463,10.3811 Z M13.4709484,14.752648 L13.4483,14.7661 L13.359588,14.842424 C13.1949,14.972392 12.85786,15.18876 12.5077,15.1746 C12.859425,15.4557417 13.090066,15.4179139 13.4131375,15.1778873 L13.5037,15.1075 L13.572,15.0376 L13.5620172,14.973352 L13.5620172,14.973352 L13.5385734,14.8586371 C13.5210734,14.7915387 13.4993984,14.747534 13.4709484,14.752648 L13.4709484,14.752648 Z M13.1024,13.9652 C13.0265,13.8438 12.7953,13.8515 12.5859,13.9824 C12.3764,14.1132 12.2681,14.3177 12.344,14.4391 C12.4198,14.5605 12.6511,14.5528 12.8605,14.4219 C13.0699,14.291 13.1782,14.0865 13.1024,13.9652 Z M14.5575,12.8756 C14.004,12.8187 13.6423,12.9837 13.3063,13.1569 C13.2348333,13.1939 13.1669667,13.2399222 13.1003593,13.2888926 L13.0011,13.3638 C12.8774,13.4585 12.7541,13.5528 12.6164,13.6062 C12.7947125,13.557825 12.9756031,13.5641375 13.1039449,13.5794832 L13.2292035,13.5993121 L13.2292035,13.5993121 L13.2663,13.607 C13.29036,13.61216 13.315644,13.581824 13.3431888,13.533596 L13.4574015,13.3062008 C13.5456306,13.1384959 13.6547091,12.9958273 13.7911,13.171 C14.0182111,13.4627333 13.9929568,13.7544667 13.9396619,13.9309473 L13.9188,13.9915 C13.8845857,14.0794286 13.8870551,14.1202143 13.9480741,14.2095204 L14.1611,14.4896 L14.1611,14.4896 C14.4557,14.1826 14.7214,13.8598 14.813,13.6633 L14.9034753,13.469056 C15.027112,13.1879524 15.07724,12.9289867 14.5575,12.8756 Z M9.97495957,8.00878233 L10.1185,8.01793 C11.4716556,8.14435741 11.8178586,9.36646119 10.9861978,9.69128565 L10.885,9.72467 C10.321675,9.879055 9.92397,10.1128736 9.61397309,10.3126812 L9.48626,10.3959 C9.32641,10.5007 9.19039,10.5898 9.06469,10.6437 C9.086872,10.5924 9.135064,10.52328 9.19688488,10.443036 L9.52189832,10.0340083 L9.52189832,10.0340083 L9.63837667,9.87293704 C9.80069867,9.6330457 9.89367747,9.40822157 9.73420771,9.29764968 L9.67145,9.26516 C9.17873857,9.07526321 8.74541647,7.96978334 9.97495957,8.00878233 L9.97495957,8.00878233 Z" id="形状" fill="#09244B"></path>
            </g>
        </g>
    </g>
</svg>

<svg xmlns="http://www.w3.org/2000/svg" width="24" height="24"><g fill="none" fill-rule="evenodd"><path d="M24 0v24H0V0h24ZM12.594 23.258l-.012.002-.071.035-.02.004-.014-.004-.071-.036c-.01-.003-.019 0-.024.006l-.004.01-.017.428.005.02.01.013.104.074.015.004.012-.004.104-.074.012-.016.004-.017-.017-.427c-.002-.01-.009-.017-.016-.018Zm.264-.113-.014.002-.184.093-.01.01-.003.011.018.43.005.012.008.008.201.092c.012.004.023 0 .029-.008l.004-.014-.034-.614c-.003-.012-.01-.02-.02-.022Zm-.715.002a.023.023 0 0 0-.027.006l-.006.014-.034.614c0 .012.007.02.017.024l.015-.002.201-.093.01-.008.003-.011.018-.43-.003-.012-.01-.01-.184-.092Z"/><path fill="#09244B" d="M10.586 2.807a2 2 0 0 1 2.701-.116l.127.116 7.778 7.779a2 2 0 0 1 .117 2.7l-.117.128-7.778 7.778a2 2 0 0 1-2.7.117l-.128-.117-7.778-7.778a2 2 0 0 1-.117-2.701l.117-.127 7.778-7.779ZM12 4.222 4.222 12 12 19.778 19.778 12 12 4.222Zm.386 3.533c.255-.295.639-.328.798-.13.084.103.08.242.052.385l-.04.17c-.018.07-.035.138-.044.199-.01.074.056.087.17.079l.393-.042c.213-.016.458-.009.683.094.575.263.477.774.191 1.05-.138.135-.353.177-.577.204l-.135.015c-.194.02-.386.041-.533.11-.351.164-.351.46-.192.558l.2.128.127.075.188.098.124.06c.415.197.383.59.16.787a.894.894 0 0 1-.172.103l-.188.087-.356.15c.415-.1.836-.158 1.163-.139l.411.031.214.025.213.035.206.046c.637.167 1.092.544.601 1.452a12.17 12.17 0 0 1-.994 1.543l-.263.337-.238.288-.438.506c-.32.377-.805.607-1.309.296-.504-.311-1.15-.722-1.565-1.379-.304-.482-.325-.769-.308-.952l.02-.164c.016-.165.224-.426.48-.23.088.068.15.18.214.318l.05.11c.097.213.215.474.438.743.18.074.293.04.226-.004l-.034-.018c-.16-.065-.479-.36-.16-.853a.7.7 0 0 1 .205-.217l.088-.045-.005-.003-.128-.045-.14-.063c-.492-.243-.706-.562-.571-.894.074-.184.298-.32.52-.437l.11-.057c.103-.053.2-.104.273-.153l.304-.214.17-.128c.124-.099.203-.175.196-.206-.015-.065-.063-.063-.136-.042l-.06.018c-.077.026-.174.057-.283.057-.255 0-.447-.262-.32-.656a1.81 1.81 0 0 1 .218-.409l.195-.292c.046-.078.06-.126.01-.126l-.039.006c-.255.066-.479-.033-.639-.23-.16-.197-.287-.623-.223-1.05.064-.427.223-.69.479-.985Zm-2.14 2.626c.511-.033.83.525.894.92.018.106.01.223-.01.363l-.057.314-.048.257c-.009.046-.017.095-.025.145l-.048.326a8.926 8.926 0 0 0-.056.596l-.02.483-.061 1.747-.019.322a2.738 2.738 0 0 1-.007.074c-.032.295-.128.525-.479.558-.324.03-.512-.331-.54-.826l-.003-.126c0-.34-.07-.35-.184-.226l-.072.089-.19.268c-.256.361-1.023.033-.863-.557.053-.196.186-.471.347-.77l.488-.876.163-.302c.1-.191.178-.358.215-.481.072-.237-.009-.246-.133-.172l-.1.068-.158.132-.183.169c-.288.262-.59.335-.926.13-.337-.203-.448-.459-.416-.688.032-.23.32-.591.447-.624.04-.01.053.015.055.052l-.004.083c-.007.069-.013.13.045.095l.064-.055.526-.51.26-.241c.402-.366.847-.72 1.098-.737Zm3.225 4.372-.023.013-.088.076c-.165.13-.502.347-.852.333.351.28.582.243.905.003l.09-.07.069-.07-.01-.065-.023-.114c-.018-.067-.04-.111-.068-.106Zm-.369-.788c-.075-.121-.307-.114-.516.017-.21.131-.318.336-.242.457.076.121.307.114.517-.017.209-.131.317-.336.241-.457Zm1.455-1.09c-.553-.056-.915.109-1.25.282-.072.037-.14.083-.207.132l-.099.075a1.633 1.633 0 0 1-.385.242c.179-.048.36-.042.488-.027l.125.02.037.008c.024.005.05-.025.077-.073l.114-.228c.089-.168.198-.31.334-.135a.819.819 0 0 1 .149.76l-.021.06c-.034.088-.032.13.03.219l.212.28c.295-.307.56-.63.652-.827l.09-.194c.124-.281.174-.54-.346-.593ZM9.976 8.01l.143.009c1.354.126 1.7 1.348.868 1.673l-.101.034a4.401 4.401 0 0 0-1.271.588l-.128.083c-.16.105-.296.194-.421.248a1.1 1.1 0 0 1 .132-.201l.325-.409.116-.161c.163-.24.256-.465.096-.575l-.063-.033c-.492-.19-.926-1.295.304-1.256Z"/></g></svg>
